icons/triangle-help.svg

<svg xmlns="http://www.w3.org/2000/svg" width="24" height="24" viewBox="0 0 24 24">
  <path d="M9.37135227,3.70432092 C10.1698214,2.25255887 11.9939942,1.72296031 13.4457562,2.52142944 C13.9442354,2.79559297 14.3544842,3.20584177 14.6286477,3.70432092 L14.6286477,3.70432092 L22.2461053,17.5542438 C23.0445744,19.0060058 22.5149759,20.8301786 21.0632138,21.6286477 C20.6202789,21.8722619 20.1229665,22 19.6174576,22 L19.6174576,22 L4.38254244,22 C2.72568819,22 1.38254244,20.6568542 1.38254244,19 C1.38254244,18.4944911 1.5102805,17.9971787 1.75389472,17.5542438 L1.75389472,17.5542438 Z M12.0001686,16 C11.4478886,16 11.0001686,16.4477 11.0001686,17 C11.0001686,17.5523 11.4478886,18 12.0001686,18 C12.5524586,18 13.0001686,17.5523 13.0001686,17 C13.0001686,16.4477 12.5524586,16 12.0001686,16 Z M12.0001686,10 C11.3689286,10 10.8456386,10.15996 10.4278886,10.43846 C10.0148386,10.71383 9.74882858,11.07562 9.57934858,11.41459 C9.39409858,11.78507 9.54426858,12.23558 9.91475858,12.42082 C10.2852386,12.60606 10.7357486,12.45589 10.9209886,12.08541 C11.0014986,11.92438 11.1104886,11.78617 11.2599386,11.68654 C11.4046986,11.59004 11.6314086,11.5 12.0001686,11.5 C12.2799186,11.5 12.5530786,11.58656 12.7376686,11.725 C12.9022286,11.84842 13.0001686,12.01009 13.0001686,12.25 C13.0001686,12.42662 12.9593586,12.51381 12.9229986,12.56835 C12.8776486,12.63639 12.7994086,12.71162 12.6466286,12.81349 C12.5702386,12.86441 12.4880486,12.9139 12.3877086,12.97411 L12.3815586,12.9778 C12.2878586,13.03402 12.1772086,13.10041 12.0684786,13.1729 C11.8462486,13.32107 11.5807386,13.52712 11.3760986,13.83412 C11.1463586,14.17878 11.2395186,14.64442 11.5841786,14.87417 C11.9288386,15.10391 12.3944886,15.01075 12.6242286,14.66609 C12.6695886,14.59803 12.7478286,14.52279 12.9005986,14.42093 C12.9769786,14.37001 13.0591686,14.32052 13.1594986,14.26032 L13.1657686,14.25656 C13.2594286,14.20036 13.3700286,14.134 13.4787086,14.06154 C13.7009186,13.91339 13.9664386,13.70737 14.1710686,13.4004 C14.3847686,13.07994 14.5001686,12.69838 14.5001686,12.25 C14.5001686,11.48991 14.1397686,10.90158 13.6376686,10.525 C13.1555886,10.16344 12.5537486,10 12.0001686,10 Z"/>
</svg>

<svg xmlns="http://www.w3.org/2000/svg" viewBox="0 0 24 24">
  <path d="M9.37 3.7a3 3 0 0 1 5.26 0l7.62 13.85A3 3 0 0 1 19.62 22H4.38a3 3 0 0 1-2.63-4.45zM12 16a1 1 0 1 0 0 2 1 1 0 0 0 0-2zm0-6c-.63 0-1.15.16-1.57.44a2.5 2.5 0 0 0-.85.97.75.75 0 1 0 1.34.68 1 1 0 0 1 .34-.4c.14-.1.37-.19.74-.19.28 0 .55.09.74.22.16.13.26.29.26.53 0 .18-.04.26-.08.32a.96.96 0 0 1-.27.24l-.26.16-.32.2c-.22.15-.49.36-.7.66a.75.75 0 0 0 1.25.84.96.96 0 0 1 .28-.25l.26-.16.32-.2a2.03 2.03 0 0 0 1.02-1.81 2.1 2.1 0 0 0-.86-1.72A2.76 2.76 0 0 0 12 10z"/>
</svg>
